X:1
T:The Trip To Durrow
R:reel
M:4/4
L:1/8
K:D
|:D2FD ADFA|dfed ~B2Bc|dBBA dBBA|FADE FE~E2|
|D2FD ADFA|dfed ~B2Bc|dBBA FAdB|AFEG FD~D2:|
|:dcde fefg|afdf gfed|cdef gebe|gebe gfef|
|dcde fefg|afdf gfed|cdef gbag|fdec ~d2de|
|fdec ~d2de|fded ~B2Bc|dBBA dBBA|FADE FE~E2|
|D2FD ADFA|dfed ~B2Bc|dBBA FAdB|AFEG FD~D2:|